icon/lg/spark.svg

<?xml version="1.0" encoding="UTF-8" standalone="no"?>
<svg viewBox="0 0 256 258" version="1.1" xmlns="http://www.w3.org/2000/svg" xmlns:xlink="http://www.w3.org/1999/xlink" preserveAspectRatio="xMidYMid" height="1em" width="1em">
  <g fill="#FFA64D">
    <path d="M13.221978,183.044689 C30.007326,165.978022 244.278388,4.78241758 247.935531,8.43956044 C250.748718,11.2527473 91.4285714,228.055678 74.5494505,245.028571 C57.6703297,262.001465 30.2886447,261.813919 13.4095238,244.747253 C-3.56336996,227.680586 -3.56336996,200.017582 13.221978,183.044689 L13.221978,183.044689 Z" opacity="0.5"/>
    <path d="M22.6930403,175.449084 C43.3230769,163.352381 252.811722,80.2695971 255.34359,84.770696 C257.312821,88.240293 86.552381,239.308425 65.8285714,251.311355 C45.1985348,263.314286 18.8483516,256.093773 6.93919414,235.088645 C-4.96996337,214.271062 2.06300366,187.545788 22.6930403,175.449084 L22.6930403,175.449084 Z" opacity="0.3"/>
    <path d="M82.0512821,235.27619 C94.0542125,214.458608 176.386813,3.46959707 171.979487,0.937728938 C168.50989,-1.03150183 18.6608059,171.041758 6.65787546,191.859341 C-5.25128205,212.676923 1.96923077,239.214652 22.7868132,251.12381 C43.5106227,263.12674 70.0483516,256 82.0512821,235.27619 L82.0512821,235.27619 Z" opacity="0.3"/>
    <path d="M32.7267399,171.041758 C55.7948718,164.758974 249.248352,140.846886 250.654945,145.81685 C251.686447,149.661538 77.9252747,249.248352 54.8571429,255.531136 C31.789011,261.813919 8.15824176,247.935531 2.06300366,224.586081 C-4.03223443,201.23663 9.75238095,177.324542 32.7267399,171.041758 L32.7267399,171.041758 Z" opacity="0.2"/>
    <path d="M32.7267399,171.041758 C55.7948718,164.758974 212.114286,200.111355 213.427106,204.987546 C214.458608,208.832234 77.8315018,249.154579 54.76337,255.437363 C31.6952381,261.720147 8.06446886,247.841758 1.96923077,224.492308 C-4.03223443,201.23663 9.75238095,177.324542 32.7267399,171.041758 L32.7267399,171.041758 Z" opacity="0.1"/>
    <path d="M86.4586081,225.054945 C92.7413919,201.799267 57.5765568,44.3545788 52.6065934,43.0417582 C48.7619048,42.0102564 8.81465201,179.575092 2.62564103,202.830769 C-3.56336996,226.086447 10.2212454,249.904762 33.3831502,255.906227 C56.4512821,262.095238 80.2695971,248.310623 86.4586081,225.054945 L86.4586081,225.054945 Z" opacity="0.1"/>
    <path d="M86.4586081,225.054945 C92.7413919,201.799267 116.372161,6.93919414 111.495971,5.62637363 C107.651282,4.59487179 8.90842491,179.575092 2.62564103,202.924542 C-3.56336996,226.18022 10.2212454,249.998535 33.3831502,256 C56.4512821,262.189011 80.2695971,248.310623 86.4586081,225.054945 L86.4586081,225.054945 Z" opacity="0.2"/>
  </g>
</svg>

<svg width="256" height="258" xmlns="http://www.w3.org/2000/svg" preserveAspectRatio="xMidYMid"><g fill="#FFA64D"><path d="M13.222 183.045C30.007 165.978 244.278 4.782 247.936 8.44c2.813 2.813-156.507 219.616-173.387 236.589-16.879 16.972-44.26 16.785-61.14-.282-16.972-17.066-16.972-44.73-.187-61.702Z" opacity=".5"/><path d="M22.693 175.45c20.63-12.098 230.119-95.18 232.65-90.68 1.97 3.47-168.79 154.538-189.514 166.541-20.63 12.003-46.98 4.783-58.89-16.222-11.909-20.818-4.876-47.543 15.754-59.64Z" opacity=".3"/><path d="M82.051 235.276C94.054 214.46 176.387 3.47 171.98.938 168.51-1.032 18.661 171.042 6.658 191.859c-11.91 20.818-4.689 47.356 16.129 59.265C43.51 263.127 70.048 256 82.05 235.276Z" opacity=".3"/><path d="M32.727 171.042c23.068-6.283 216.521-30.195 217.928-25.225 1.031 3.845-172.73 103.431-195.798 109.714-23.068 6.283-46.699-7.595-52.794-30.945-6.095-23.35 7.69-47.261 30.664-53.544Z" opacity=".2"/><path d="M32.727 171.042c23.068-6.283 179.387 29.07 180.7 33.946 1.032 3.844-135.595 44.167-158.664 50.45-23.068 6.282-46.699-7.596-52.794-30.946-6.001-23.255 7.783-47.167 30.758-53.45Z" opacity=".1"/><path d="M86.459 225.055c6.282-23.256-28.882-180.7-33.852-182.013C48.762 42.01 8.815 179.575 2.626 202.83c-6.19 23.255 7.595 47.074 30.757 53.075 23.068 6.19 46.887-7.595 53.076-30.851Z" opacity=".1"/><path d="M86.459 225.055C92.74 201.799 116.372 6.939 111.496 5.626 107.651 4.595 8.908 179.576 2.626 202.925-3.564 226.18 10.22 249.999 33.383 256c23.068 6.189 46.887-7.69 53.076-30.945Z" opacity=".2"/></g></svg>
